!!!ONB: MCCC : IJS0054_02 : Extracted Monophonic Melody
!!!COM: Sibelius, Jean
!!!OPR: Piano Sonata
!!!OMV: 2
!!!SCT: Op.12
!!!ODT: 1893///
**kern
*staff1
=1
*clefG2
*k[b-e-a-d-g-]
*D-:
*M2/4
4f
4f
=2
4e-
8f
8g
=3
4a-
4g
=4
4f
4f
=5
4e-
4f
=6
4d-
4c
=7
4B-
4B-
=8
2d-
=9
4f
4f
=10
4e-
8f
8g
=11
4a-
4g
=12
4a-
4f
=13
4b-
8cc
8dd-
=14
4dd-
4cc
=15
4b-
4a-
=16
2b-
=17
4b-
8cc
8dd-
=18
4dd-
4a-
=19
4b-
4b-
=20
4f
8f
8g-
=21
4a-
8b-
8cc
=22
4b-
8a-
8g-
=23
4a-
4d-
=24
4d-
4r
=25
4e-
8e-[
8e-]
=26
4a-
8f
8d-
=27
4e-
8e-[
8e-]
=28
4f
4a-
=29
4e-
8f
8g-
=30
8a-
8b-
4f
=31
4e-
8e-[
8e-]
=32
2f
=33
8e-
8f
4g-
=34
4g-
4g-
=35
4g-
8f
8g-
=36
4e-
4f
=37
4d-
8e-
8f
=38
4d-
4c
=39
4B-
4b-[
=40
4b-]
4b-
=41
8e-
8f
4g-
=42
4g-
4g-
=43
4g-
8f
8g-
=44
4e-
4f
=45
4d-
8e-
8f
=46
4B-
4c
=47
2d-[
=48
4d-]
4c
=49
2r
=50
4c
4c
=51
2r
=52
*k[f#c#g#]
*A:
8ggg
8cccc#
4ggg
=53
16cccc#
16bbb
16ggg
16aaa
8ggg
8fff#
=54
8ggg
8cccc#
4ggg
=55
16cccc#
16bbb
16ggg
16aaa
8ggg
8fff#
=56
8eee
16bb
16ccc#
16eee
16ddd
16ccc#
16bb
=57
8ccc#
8aa
8bb
8eee
=58
8eee
16bb
16ccc#
16eee
16ddd
16ccc#
16bb
=59
8ccc#
8aa
4eee[
=60
8eee]
16bb
16ccc#
16eee
16ddd
16ccc#
16bb
=61
8ccc#
8aa
16bb
16eee
8bb
=62
8eee
16bb
16ccc#
16eee
16ddd
16ccc#
16bb
=63
16ccc#
16aa
16bb
16ccc#
16ddd
16eee
16fff#
16ggg
=64
8ggg
8cccc#
4ggg
=65
16cccc#
16bbb
16ggg
16aaa
8ggg
8fff#
=66
8ggg
8cccc#
4ggg
=67
16cccc#
16bbb
16aaa
16bbb
16ggg
16aaa
16bbb
16cccc#
=68
8dddd
8ffff#
16eeee
16ffff#
16eeee
16dddd
=69
16cccc#
16dddd
16cccc#
16bbb
16aaa
16bbb
16aaa
16ggg
=70
8ggg
8cccc#
4ggg
=71
16cccc#
16bbb
16aaa
16bbb
16ggg
16aaa
16bbb
16cccc#
=72
8dddd
8ffff#
16eeee
16ffff#
16eeee
16dddd
=73
16cccc#
16dddd
16cccc#
16bbb
16aaa
16bbb
16aaa
16ggg
=74
16fff#
16ggg
16fff#
16eee
16ddd
16eee
16ddd
16ccc#
=75
16bb
16ccc#
16bb
16aa
16gg
16bb
16aa
16gg
=76
8gg
8ccc#
4gg
=77
16ccc#
16bb
16aa
16bb
4gg
=78
4gg[
4gg]
=79
4gg
8gg[
8gg]
=80
8gg
8ccc#
4gg
=81
16ccc#
16bb
16aa
16bb
4gg
=82
4ff#
4g
=83
4f#
8g
8a
=84
4g
4g
=85
4f#
8g
8a
=86
8g
8g
8f#
8f#
=87
8g
8a
8g
8f#
=88
*k[b-e-a-d-g-]
*D-:
4f
4f
=89
4e-
8f
8g
=90
4a-
4g
=91
4f
4f
=92
4e-
4f
=93
4d-
4c
=94
4B-
4B-
=95
2B-
=96
4f
4f
=97
4e-
8f
8g
=98
4a-
4g
=99
4a-
4f
=100
4b-
8cc
8dd-
=101
4dd-
4cc
=102
4b-
4a-
=103
2b-
=104
4b-
8cc
8dd-
=105
4dd-
4a-
=106
4b-
4b-
=107
4f
8f
8g-
=108
4a-
8b-
8cc
=109
4b-
8a-
8g-
=110
4a-
4d-[
=111
4d-]
4d-
=112
4e-
4e-
=113
4a-
8f
8d-
=114
4e-
4e-
=115
4f
4a-
=116
4e-
8f
8g-
=117
8a-
8b-
8f
8d-
=118
4e-
8e-[
8e-]
=119
2f
=120
8e-
8f
4g-
=121
4g-
4g-
=122
4g-
8f
8g-
=123
4e-
4f
=124
8g-
8a-
4a
=125
4a
4a
=126
4a
8g
8a
=127
4a
8g
8a
=128
*k[]
*C:
4aa
8bb
8ccc
=129
4ccc
4bb
=130
4aa
8gg
8bb
=131
4aa
8bb
8ccc
=132
4ddd
8eee
8fff
=133
4fff
4eee
=134
4ddd
8ccc
8eee
=135
8ddd
8ddd
8ccc
8eee
=136
4ddd
8eee
8fff
=137
4fff
4eee
=138
8ddd
8eee
8fff
8ggg
=139
8fff
8eee
8ddd
8fff
=140
16bbb-[
16bbb-]
16bbb-[
16bbb-]
16bbb-[
16bbb-]
16bbb-[
16bbb-]
=141
16bbb-[
16bbb-]
16bbb-[
16bbb-]
32bbb-[
16.bbb-]
8bbb-
=142
*k[b-e-a-d-g-]
*D-:
8cccc
8fff
4ccc
=143
16fff
16eee-
16ccc
16ddd-
8ccc
8bb-
=144
8ccc
8fff
4ccc
=145
16fff
16eee-
16ccc
16ddd-
8ccc
8bb-
=146
8aa-
16ee-
16ff
16aa-
16gg-
16ff
16ee-
=147
8ff
8dd-
8ee-
8aa-
=148
8aa-
16ee-
16ff
16aa-
16gg-
16ff
16ee-
=149
8ff
8dd-
4aa-
=150
8aa-
16ee-
16ff
16aa-
16gg-
16ff
16ee-
=151
8ff
8dd-
16ee-
16aa-
8ee-
=152
8aa-
16ee-
16ff
16aa-
16gg-
16ff
16ee-
=153
16ff
16dd-
16ee-
16ff
16gg-
16aa-
16bb-
16ccc
=154
8ccc
8fff
4ccc
=155
16fff
16eee-
16ccc
16ddd-
8ccc
8bb-
=156
8ccc
8fff
4ccc
=157
16fff
16eee-
16ddd-
16eee-
16ccc
16ddd-
16eee-
16fff
=158
8ggg-
8bbb-
16aaa-
16bbb-
16aaa-
16ggg-
=159
16fff
16ggg-
16fff
16eee-
16ddd-
16eee-
16ddd-
16ccc
=160
8ccc
8fff
4ccc
=161
16fff
16eee-
16ddd-
16eee-
16ccc
16ddd-
16eee-
16fff
=162
8ggg-
8bbb-
16aaa-
16bbb-
16aaa-
16ggg-
=163
16fff
16ggg-
16fff
16eee-
16ddd-
16eee-
16ddd-
16ccc
=164
16bb-
16ccc
16bb-
16aa-
16gg-
16aa-
16gg-
16ff
=165
16ee-
16ff
16ee-
16dd-
16cc
16ee-
16dd-
16cc
=166
8cc
8fff
4ccc
=167
16fff
16eee-
16ccc
16ddd-
4ccc
=168
4ccc[
4ccc]
=169
4ccc
8ccc[
8ccc]
=170
8ccc
8fff
4ccc
=171
16fff
16eee-
16ccc
16ddd-
8.ccc
16bb-
=172
4ccc
4c
=173
4B-
8c
8d-
=174
4c
4c
=175
4B-
8c
8d-
=176
8c
8c
8B-
8B-
=177
8c
8d-
8e-
8f
=178
4f
4f
=179
4e-
8f
8g
=180
4a-
4g
=181
4f
4f
=182
4e-
4f
=183
4d-
4c
=184
4B-
4B-
=185
2B-
=186
4f
4f
=187
4e-
8f
8g
=188
4a-
4g
=189
4a-
4f
=190
4b-
8cc
8dd-
=191
4dd-
4cc
=192
4b-
4a-
=193
2b-
=194
4b-
8cc
8dd-
=195
4dd-
4a-
=196
4b-
4b-
=197
4f
8f
8g-
=198
4a-
8b-
8cc
=199
4b-
8a-
8g-
=200
4a-
4d-[
=201
4d-]
4d-
=202
4e-
4e-
=203
4a-
8f
8d-
=204
4e-
4e-
=205
4f
4B-
=206
4e-
8f
8g-
=207
8a-
8b-
8f
8d-
=208
4e-
4e-
=209
2f
=210
8e-
8f
4g-
=211
4g-
4g-
=212
4g-
8f
8g-
=213
4e-
4f
=214
8g-
8a-
4a
=215
4a
4a
=216
2a
=217
4a
8g-
8a-
=218
4b-
8cc
8dd-
=219
4dd-
4cc
=220
4b-
8a-
8cc
=221
4b-
4b-
=222
4b-
8cc
8dd-
=223
8ee-
8ff
8dd-
8cc
=224
4b-
8a-
8cc
=225
2b-
=226
8r
8e-
8f
8g-
=227
4g-
4g-
=228
4g-
8f
8g-
=229
4e-
4f
=230
4d-
8e-
8f
=231
4d-
4c
=232
4B-
4b-[
=233
4b-]
4b-
=234
8r
8e-
8f
8g-
=235
4g-
4g-
=236
4g-
8f
8g-
=237
4e-
4f
=238
4d-
8e-
8f
=239
4d-
4c
=240
4B-
4B-
=241
2B-
=242
4B-
4B-
=243
2B-
=244
2B-
=245
2B-
=246
[2B-
=247
2B-]
==
*-
